!!!!SEGMENT: pl-wn--mus-iii-65-947-cim--011_sowinski-wojciech--swiety-wojciech-meczennik-no-10-recitativo-arja-i-chor.krn
!!!cenid: 18xx:3604
!!!COM: Sowiński, Wojciech
!!!COM-rismid: pe30008543
!!!CDT: ~1803-1880/03/05
!!!CNT:
!!!GTL: Święty Wojciech męczennik
!!!OTL: No. 10. Recitativo, arja i chór
!!!PDT: 1877
!!!AGN:
!!!SMS-siglum: PL-Wn
!!!SMS-shelfmark: Mus.III.65.947 Cim.
!!!SMS-shelfwork: 011 G
!!!SMS-variant:
!!!SMS-altvar:
!!!NIFC-rismid:
!!!URL-scan: https://polona.pl/item/swiety-wojciech-meczennik-oratorjo-w-trzech-czesciach-dzielo-66-spiew-z-fortepianem,MTkzODI1Mzc/242/#item
!!!ONB-nifc: UWAGA: oratorium zawiera w źródle 28 numerów podzielonych na 30 plików (rozdzielenie w No. 6 - osobno Recitativo oraz Aria matki i No. 10 - osobno Recitativo, arja i chór oraz Sen). Polecam widok miniatur na Polonie. Uwaga co do obsady: prosimy umieszczać tylko partie występujące w danym numerze (nie całą obsadę oratorium)
!!!AIN: 1 piano 1 soprn
!!!key:
**kern	**kern	**dynam	**kern	**text	**dynam
*part2	*part2	*part2	*part1	*part1	*part1
*staff3	*staff2	*	*staff1	*staff1	*
*I"PIANO	*I"PIANO	*	*I"SOPRAN. SOLO.	*	*
*I'pf	*I'pf	*	*I'S	*	*
*Ipiano	*Ipiano	*	*Isoprn	*	*
*ICklav	*ICklav	*	*ICvox	*	*
*clefF4	*clefG2	*	*clefG2	*	*
*k[b-e-a-d-]	*k[b-e-a-d-]	*	*k[b-e-a-d-]	*	*
*E-:	*E-:	*	*E-:	*	*
*M4/4	*M4/4	*	*M4/4	*	*
*met(c)	*met(c)	*	*met(c)	*	*
(<32qqEE-/LLL	.	.	.	.	.
!	!	!	!LO:TX:a:i:t=Recit.:rj	!	!
!	!	!	!LO:TX:a:i:t=AZAEL.:rj	!	!
32qqBB-/JJJ	.	.	.	.	.
2E- 2BB- 2EE-/)	2e-: 2B-: 2G:/	.	4r	.	.
.	.	.	4b-\	Już	.
=1	=1	=1	=1	=1	=1
1r	1r	.	[>2b-\	mło-	.
.	.	.	8b-\]	.	.
.	.	.	8b-\	-dzian	.
.	.	.	(<8.a-/L	wzra-	.
.	.	.	16g/Jk)	.	.
=2	=2	=2	=2	=2	=2
4r	4r	.	2g/	-sta,	.
!	!	!LO:DY:rj	!	!	!
2C 2CC/	2g 2en 2c/	p	.	.	.
.	.	.	4r	.	.
4r	4r	.	8g/	rok	.
.	.	.	8g/	za	.
=3	=3	=3	=3	=3	=3
!	!	!	!	!	!LO:HP:a
2r	2r	.	(>2b-\	ro-	<
4r	4r	.	8b-\L	.	.
.	.	.	8dd-\J)	.	[
!	!	!	!	!	!LO:HP:a
4En\	[>4b- [>4g [<4c/	.	(>8cc\L	-kiem	>
.	.	.	8g\J)	.	]
!!LO:LB:g=original
=4	=4	=4	=4	=4	=4
[>2F\	(>4b-] (>4g] [<4c/_	.	4b-\	pły-	.
.	4a-) 4f) 4c/]	.	4a-\	-nie;	.
8F\L]	2r	<	2r	.	.
8A-\	.	.	.	.	.
8B-\	.	.	.	.	.
8c\J	.	[	.	.	.
=5	=5	=5	=5	=5	=5
4F\	2r	.	4r	.	.
4r	.	.	8f/	Sam	.
.	.	.	8g/	pusz-	.
!	!LO:TX:b:i:t=segue	!LO:DY:rj	!	!	!
4F 4FF/	4an 4f 4e- 4c/	f	(<4an/	-czo-	.
!	!	!	!	!	!LO:HP:a
4r	4r	.	8.b-/)	.	<
.	.	.	16cc\	-ny	.
=6	=6	=6	=6	=6	=6
4BB-/	4b- 4f 4d-/	.	2dd-\	w świat,	[[
(>8d-\L	(>8dd-\L	.	.	.	.
8c\J)	8cc\J)	.	.	.	.
4B-\	4b-\	.	4ryy	.	.
4r	4r	.	4b-\	Bez-	.
=7	=7	=7	=7	=7	=7
*	*tremolo	*	*	*	*
2.G-X 2.GG-X/	16b-LL 16g-X/	f	2.dd-^>\	-boż-	.
.	16d-/	.	.	.	.
.	16b- 16g-/	.	.	.	.
.	16d-/	.	.	.	.
.	16b- 16g-/	.	.	.	.
!	!	!	!	!	!LO:HP:a
.	16d-/	.	.	.	<
.	16b- 16g-/	.	.	.	.
.	16d-/JJ	.	.	.	.
.	16b-LL 16g-/	.	.	.	.
.	16d-/	.	.	.	.
.	16b- 16g-/	.	.	.	.
.	16d-/	.	.	.	.
4G- 4GG-/	16b- 16g-/	.	4dd-\	-ném	.
.	16d-/	.	.	.	.
.	16b- 16g-/	.	.	.	.
.	16d-/JJ	.	.	.	[
*	*Xtremolo	*	*	*	*
=8	=8	=8	=8	=8	=8
2.D- 2.DD-/	2.a- 2.f 2.d-/	.	(>2.ff\	o-	.
4r	4r	.	8dd-\)	.	.
.	.	.	8cc\	-kiem	.
!!LO:LB:g=original
=9	=9	=9	=9	=9	=9
4r	4r	.	4bn\	pa-	.
2D-^>\	2bn 2a- 2f/	.	4b\	-trzy	.
.	.	.	4.b\	na	.
4r	4r	.	.	.	.
.	.	.	8cc\	świą-	.
=10	=10	=10	=10	=10	=10
8r	8r	.	2cc\	-ty-	.
8C\L	8c/L	<	.	.	.
8En\	8en/	.	.	.	.
8G\J	8g/J	.	.	.	.
4c\	4.cc\	.	4cc\	-nie	.
4r	.	[	4r	.	.
.	8cc\	.	.	.	.
=11	=11	=11	=11	=11	=11
*^	*	*	*	*	*
!	!	!LO:TX:a:t=Oboe.	!	!	!	!
8A-/L	2F\	4cc\	p	1r	.	.
8c/	.	.	.	.	.	.
8f/	.	(>8bn\L	.	.	.	.
8c/J	.	8cc\J	.	.	.	.
8A-/L	2F\	4dd-\	.	.	.	.
8c/	.	.	.	.	.	.
8f/	.	4cc\	.	.	.	.
8c/J	.	.	.	.	.	.
=12	=12	=12	=12	=12	=12	=12
8B-/L	2F\	4bn\	.	1r	.	.
8c/	.	.	.	.	.	.
8en/	.	4cc\	.	.	.	.
8c/J	.	.	.	.	.	.
8B-/L	2F\	2g/)	.	.	.	.
8c/	.	.	.	.	.	.
8e/	.	.	.	.	.	.
8c/J	.	.	.	.	.	.
*v	*v	*	*	*	*	*
=13	=13	=13	=13	=13	=13
!	!LO:TX:b:i:t=colla voce	!	!LO:TX:a:i:t=Lento.	!	!
4F\	(>2a- (<2f/	.	[<4a-/	Brnie	.
4E-X\	.	.	8a-/]	.	.
.	.	.	8a-/	w po-	.
4D-\	4b- 4g/))	.	4.b-\	-gań-	.
4C\	4g 4en/	.	.	.	.
.	.	.	8cc\	-ski	.
!!LO:LB:g=original
=14	=14	=14	=14	=14	=14
4F\	2f/	.	2f/	ślad!	.
4FF/	.	.	.	.	.
2r	2r	.	4r	.	.
.	.	.	4f/	Lecz	.
=15	=15	=15	=15	=15	=15
[<1BB-	[>1g-X [<1d- [<1B-	f	4g/	Bóg	.
.	.	.	8g/	co	.
.	.	.	8b-/	we	.
.	.	.	(>4.dd-\	snach	.
.	.	.	8b-\)	.	.
=16	=16	=16	=16	=16	=16
2.BB-/]	2.g-] 2.d-] 2.B-/]	.	4.g/	gro-	.
.	.	.	8g/	-źbę	.
.	.	.	(<4g/	swą	.
4BBn\	4f 4dn 4A-</	.	8f/)	.	.
.	.	.	8f/	ob-	.
=17	=17	=17	=17	=17	=17
(<2C\	2en 2c 2G</	.	(<8en/L	-ja-	.
.	.	.	8g/J)	.	.
.	.	.	4cc\	-wia	.
4CC/)	8en/L	.	4r	.	.
.	8g/J	.	.	.	.
4r	4cc 4c/	.	8cc\	Nim	.
.	.	.	8cc\	doj-	.
=18	=18	=18	=18	=18	=18
*^	*	*	*	*	*
2A-/	1AA-	2cc 2e-X/	<	(>2cc\	-rze-	.
2G/	.	2dd- 2f-X/	[ > ]]	4.dd-\)	.	.
.	.	.	.	8dd-\	-je	.
!!LO:PB:g=original
=19	=19	=19	=19	=19	=19	=19
[>2A-/	(>8AA-\L	[>2cc [<2e-/	.	2cc\	plon,	.
.	8C\	.	.	.	.	.
.	8D-\	.	.	.	.	.
.	8E-\J)	.	.	.	.	.
4A-\] 4AA-\	4ryy	4cc] 4e-/]	.	4r	.	.
!	!	!	!	!	!	!LO:DY:a:rj
4r	4ryy	4r	.	4cc\	Woj-	mf
*v	*v	*	*	*	*	*
=20	=20	=20	=20	=20	=20
(<2F\	(>[>2c< 2A-</	.	4.cc\	-cie-	.
.	.	.	8cc\	-cha	.
(<2En\)	(>2c<_> 2G</)	.	8.cc\	o-	.
.	.	.	16cc\	-czom	.
.	.	.	8.cc\	na	.
.	.	.	16cc\	prze-	.
=21	=21	=21	=21	=21	=21
2E-X\)	2c<_ 2G-X</)	.	[>2cc\	-stro-	.
(<2D-X\	(>2c<_> 2F</	.	4.cc\]	.	.
.	.	.	8cc\	-gę	.
=22	=22	=22	=22	=22	=22
*	*^	*	*	*	*
2C\)	2c<] 2En</)	2ryy	.	4cc\	sta-	.
.	.	.	.	4cc\	-wia	.
!	!	!	!	!LO:TX:a:i:t=più lento.	!	!
4r	4ryy	4ryy	.	4r	.	.
4An 4AAn\	8.cc/L	4f#X 4d-\	.	8.cc\	Po-	.
.	16ddn/Jk	.	.	16ddn\	-tę-	.
*	*v	*v	*	*	*	*
!!LO:LB:g=original
=23	=23	=23	=23	=23	=23
!	!	!LO:DY:rj	!	!	!
8GL 8GG\	8eenL 8cc 8g 8en\	ff	(>2een\	-pień-	.
16GL 16GG\	16eeenL 16ccc 16gg 16een\	.	.	.	.
16GJJ 16GG\	16eeeJJ 16ccc 16gg 16ee\	.	.	.	.
8GL 8GG\	8eeeL 8ccc 8gg 8ee\	.	.	.	.
8GJ 8GG\	8eeeJ 8ccc 8gg 8ee\	.	.	.	.
4G 4GG\	4dddny 4gg 4ddn\	.	4.ddn\)	.	.
4GG 4GGG/	4ggg 4ddd 4bbn 4gg^<\	.	.	.	.
.	.	.	8dd\	-ca	.
=24	=24	=24	=24	=24	=24
4C 4GG 4EEn 4CC/	8.cccL 8.gg 8.een 8.cc\	.	2cc\	zgon!	.
.	16c\Jk	.	.	.	.
4C\	(<16d-/LL	.	.	.	.
.	16c/	<	.	.	.
.	16Bn/	.	.	.	.
.	16c/JJ	.	.	.	.
4En\	16f/LL	.	2r	.	.
.	16en/	.	.	.	.
!	!LO:N:acc=#	!	!	!	!
.	16dn/	.	.	.	.
.	16e/JJ	.	.	.	.
4G\	16an/LL	.	.	.	.
.	16g/	.	.	.	.
.	16f#X/	.	.	.	.
.	16g/JJ)	[	.	.	.
=25	=25	=25	=25	=25	=25
*^	*	*	*	*	*
*	*^	*	*	*	*	*
*	*	*^	*	*	*	*	*
!	!	!	!	!	!LO:DY:rj	!	!	!
4c\	4ryy	2ryy	2ryy	8.cc\L	sf	1r	.	.
.	.	.	.	(>16cc\Jk	.	.	.	.
*clefG2	*	*	*	*	*	*	*	*
(>2c/	N[<2c\	.	.	16dd-\LL	pp	.	.	.
.	.	.	.	16cc\	.	.	.	.
.	.	.	.	16bn\	.	.	.	.
.	.	.	.	16cc\JJ	.	.	.	.
.	.	[<2en/	2en\	16ff\LL	.	.	.	.
.	.	.	.	16een\	.	.	.	.
!	!	!	!	!LO:N:acc=#	!	!	!	!
.	.	.	.	16ddn\	.	.	.	.
.	.	.	.	16ee\JJ	.	.	.	.
4g\	4ryy	.	.	16aan\LL	.	.	.	.
.	.	.	.	16gg\	.	.	.	.
.	.	.	.	16ff#X\	.	.	.	.
.	.	.	.	16gg\JJ	.	.	.	.
*v	*v	*v	*v	*	*	*	*	*
=26	=26	=26	=26	=26	=26
2cc) 2g 2enX] 2c/N]	2ccc\	.	2r	.	.
==	==	==	==	==	==
*-	*-	*-	*-	*-	*-
!!!system-decoration: s1{(s2,s3)}
!!!RDF**kern: N = linked
!!!RDF**kern: > = above
!!!RDF**kern: < = below
!!!ENC: Anastazja Marusiak
!!!END: 2022-02-22
!!!EED: Antoni Szymański
!!!EEV: 2022-02-28
